X:1
T:14. Vanvyrdnad
T:14. Vanvyrdnad
T:Symra
T:Chr. Haslerud
T:Ivar Aasen
C:Chr. Haslerud
Z:Ivar Aasen
%%score [ 1 2 3 4 ]
L:1/8
Q:1/4=80
M:4/4
K:Eb
V:1 treble nm="Soprano"
V:2 treble nm="Alto"
V:3 treble-8 nm="Tenor"
V:4 bass nm="Bass"
V:1
!mf!"^Ikke for langsomt" E B A | G3 E D2 F2 | E2 B,2 z!p! B, C D | E3 E F2 F2 | G4 z E B =A | %5
w: Det gjeng so|y- mist til i|Ver- di; her er so|mangt at un- drast|paa. Der tvo, som|
 B3 c d2 e2 | d2 c2 z c f e |!>(! d3 c B2!>)! =A2 | B4 z!p! B A G | F3 G A2 B2 | c2 B2 z B c d | %11
w: gje- ra sa- me|Gjer- di, men al- dri|sa- me Vyrd- nad|faa. Den ei- ne|fær seg Ros og|Mæ- ta, og hin fær|
 e2 c2 B2 A2 | G4 z!f! E F G | A2 B2 c2 d2 | e2 B2 z e c A | G3 G F2 F2 | E4 z |] %17
w: hel- der Last og|Skam; den ei- ne|gjeng i Lyst og|Kjæ- ta, og hin fær|al- dri, Fo- ten|fram.|
V:2
!mf! B, E D | E3 B, B,2 D2 | B,2 B,2 z!p! B, A, A, | G,3 E E2 D2 | E4 z B, E F | F3 E D2 F2 | %6
w: Det gjeng so|y- mist til i|Ver- di; her er so|mangt at un- drast|paa. Der tvo, som|gje- ra sa- me|
 F2 F2 z F F F |!>(! F3 E D2!>)! F2 | F4 z!p! G F E | D3 E F2 (FE) | E2 E2 z G A F | %11
w: Gjer- di, men al- dri|sa- me Vyrd- nad|faa. Den ei- ne|fær seg Ros og _|Mæ- ta, og hin fær|
 G2 E2 (FE) D2 | E4 z!f! E E E | E2 G2 A2 F2 | E2 E2 z E E F | E3 E E2 D2 | B,4 z |] %17
w: hel- der Last _ og|Skam; den ei- ne|gjeng i Lyst og|Kjæ- ta, og hin fær|al- dri, Fo- ten|fram.|
V:3
!mf! G B B | B3 G F2 A2 | G2 G2 z!p! G E F | E3 B c2 B2 | B4 z G B c | B3 F F2 =A2 | %6
w: Det gjeng so|y- mist til i|Ver- di; her er so|mangt at un- drast|paa. Der tvo, som|gje- ra sa- me|
 B2 =A2 z A B A |!>(! B3 =A B2!>)! c2 | d4 z4 | z!p! B B B A G F G | A2 G2 z4 | z B c A F G A B | %12
w: Gjer- di, men al- dri|sa- me Vyrd- nad|faa.|Den ei- ne fær seg Ros og|Mæ- ta,|og hin fær hel- der Last og|
 B4 z!f! G A B | c2 _d2 e2 B2 | B2 B2 z B A c | B3 B B2 A2 | G4 z |] %17
w: Skam; den ei- ne|gjeng i Lyst og|Kjæ- ta, og hin fær|al- dri, Fo- ten|fram.|
V:4
!mf! E, G, F, | E,3 E, B,,2 B,,2 | E,2 E,2 z!p! E, C, B,, | C,3 G,, A,,2 B,,2 | E,4 z E, G, F, | %5
w: Det gjeng so|y- mist til i|Ver- di; her er so|mangt at un- drast|paa. Der tvo, som|
 D,3 =A,, B,,2 C,2 | D,2 F,2 z E, D, C, |!>(! B,,3 F, G,2!>)! F,2 | B,,4 z4 | %9
w: gje- ra sa- me|Gjer- di, men al- dri|sa- me Vyrd- nad|faa.|
 z!p! A, A, G, F, E, D, E, | A,,2 E,2 z4 | z G,, A,, C, D, E, F, B,, | E,4 z!f! E, E, _D, | %13
w: Den ei- ne fær seg Ros og|Mæ- ta,|og hin fær hel- der Last og|Skam; den ei- ne|
 C,2 B,,2 A,,2 A,2 | G,2 G,2 z G, A, A,, | B,,3 B,, B,,2 B,,2 | E,4 z |] %17
w: gjeng i Lyst og|Kjæ- ta, og hin fær|al- dri, Fo- ten|fram.|

